src/assets/img/twitter.svg

<svg height="33" viewBox="0 0 40 33" width="40" xmlns="http://www.w3.org/2000/svg"><path d="m12.6291693 32.424936c14.9947174 0 23.1941694-12.4223533 23.1941694-23.19416667 0-.35283733-.0071867-.70408266-.0230134-1.05374 1.591732-1.150688 2.9752614-2.58666533 4.0663494-4.221312-1.460612.64924934-3.0324774 1.08632134-4.681428 1.28340134 1.6831213-1.00923867 2.9752613-2.60573867 3.5847773-4.50898534-1.5750453.93374267-3.319356 1.612396-5.1765107 1.97874-1.4876306-1.58458133-3.6054386-2.57554-5.9505226-2.57554-4.501832 0-8.152568 3.650736-8.152568 8.15097734 0 .639712.07152 1.261944.211384 1.85874263-6.7753947-.34091463-12.78313737-3.58477597-16.8033947-8.5173213-.70010933 1.20472667-1.10380267 2.604148-1.10380267 4.09734133 0 2.828248 1.43915467 5.32511597 3.627688 6.78572797-1.337436-.0413226-2.59381733-.408464-3.69205866-1.019568-.0012.0342027-.0012.067548-.0012.1041027 0 3.9479427 2.80997066 7.2442533 6.54017333 7.9912467-.68500933.1867493-1.40578.2868773-2.14959467.2868773-.52448533 0-1.03546133-.0516213-1.532132-.1470133 1.037844 3.2390933 4.047276 5.5960973 7.61536667 5.6620573-2.790104 2.1869427-6.30494933 3.489416-10.12494933 3.489416-.65719734 0-1.30644534-.0373813-1.94456934-.1128453 3.607824 2.3125053 7.89191467 3.6618613 12.49625737 3.6618613" fill="#1da1f2"/></svg>

<?xml version="1.0" encoding="UTF-8"?>
<svg width="40px" height="33px" viewBox="0 0 40 33" version="1.1" xmlns="http://www.w3.org/2000/svg" xmlns:xlink="http://www.w3.org/1999/xlink">
    <!-- Generator: Sketch 47.1 (45422) - http://www.bohemiancoding.com/sketch -->
    <title>path3611</title>
    <desc>Created with Sketch.</desc>
    <defs></defs>
    <g id="desktop" stroke="none" stroke-width="1" fill="none" fill-rule="evenodd">
        <g id="home" transform="translate(-507.000000, -2607.000000)" fill-rule="nonzero" fill="#1DA1F2">
            <g id="Group-15" transform="translate(0.000000, 2607.000000)">
                <g id="twitter.e6f7d892" transform="translate(507.000000, 0.000000)">
                    <path d="M12.6291693,32.424936 C27.6238867,32.424936 35.8233387,20.0025827 35.8233387,9.23076933 C35.8233387,8.877932 35.816152,8.52668667 35.8003253,8.17702933 C37.3920573,7.02634133 38.7755867,5.590364 39.8666747,3.95571733 C38.4060627,4.60496667 36.8341973,5.04203867 35.1852467,5.23911867 C36.868368,4.22988 38.160508,2.63338 38.770024,0.730133333 C37.1949787,1.663876 35.450668,2.34252933 33.5935133,2.70887333 C32.1058827,1.124292 29.9880747,0.133333333 27.6429907,0.133333333 C23.1411587,0.133333333 19.4904227,3.78406933 19.4904227,8.28431067 C19.4904227,8.92402267 19.5619427,9.54625467 19.7018067,10.1430533 C12.926412,9.80213867 6.91866933,6.55827733 2.898412,1.625732 C2.19830267,2.83045867 1.79460933,4.22988 1.79460933,5.72307333 C1.79460933,8.55132133 3.233764,11.0481893 5.42229733,12.5088013 C4.08486133,12.4674787 2.82848,12.1003373 1.73023867,11.4892333 C1.72903867,11.523436 1.72903867,11.5567813 1.72903867,11.593336 C1.72903867,15.5412787 4.53900933,18.8375893 8.269212,19.5845827 C7.58420267,19.771332 6.863432,19.87146 6.11961733,19.87146 C5.595132,19.87146 5.084156,19.8198387 4.58748533,19.7244467 C5.62532933,22.96354 8.63476133,25.320544 12.202852,25.386504 C9.412748,27.5734467 5.89790267,28.87592 2.07790267,28.87592 C1.42070533,28.87592 0.771457333,28.8385387 0.133333333,28.7630747 C3.74115733,31.07558 8.025248,32.424936 12.6295907,32.424936" id="path3611"></path>
                </g>
            </g>
        </g>
    </g>
</svg>
